!!!!SEGMENT: pl-sa--342-a-vii-102_laube-antonin--lauda-jerusalem.krn
!!!cenid: 18xx:1253
!!!COM: Laube, Antonín
!!!COM-rismid: pe30001878
!!!CDT: 1718-1784
!!!CNT: Czech
!!!OTL: Lauda Jerusalem
!!!PDT: 1815
!!!AGN:
!!!SMS-siglum: PL-SA
!!!SMS-shelfmark: 342/A VII 102
!!!SMS-shelfwork: W
!!!SMS-variant:
!!!SMS-altvar:
!!!NIFC-rismid: 1001039144
!!!URL-scan: http://bc.bdsandomierz.pl/dlibra/publication/1646/edition/1614/content
!!!ONB-nifc:
**kern	**kern	**dynam	**kern	**dynam	**kern	**text	**kern	**text
*part5	*part4	*part4	*part3	*part3	*part2	*part2	*part1	*part1
*group2	*group2	*	*group2	*	*group1	*	*group1	*
*staff5	*staff4	*	*staff3	*	*staff2	*staff2	*staff1	*staff1
*I"Baſso	*I"Violino 2do.	*	*I"Violino Primo	*	*I"alto	*	*I"Canto.	*
*I'b	*I'vl 2	*	*I'vl 1	*	*I'A	*	*I'S	*
*clefF4	*clefG2	*	*clefG2	*	*clefC3	*	*clefC1	*
*Trd0c0	*	*	*	*	*	*	*	*
*k[f#]	*k[f#]	*	*k[f#]	*	*k[f#]	*	*k[f#]	*
*M3/4	*M3/4	*	*M3/4	*	*M3/4	*	*M3/4	*
=1	=1	=1	=1	=1	=1	=1	=1	=1
!LO:TX:b:t=Lauda Jerusal	!LO:TX:b:i:t=Lauda Jerusalem	!	!LO:TX:b:i:t=Lauda Jerusalem-	!	!	!	!	!
!LO:TX:a:i:t=Andante-	!LO:TX:a:i:t=andante-	!	!LO:TX:a:i:t=andante	!	!LO:TX:a:Bi:t=andante	!	!LO:TX:a:B:t=andante=	!
4G\	4b\	.	4dd\	.	4b\	Lau-	4dd\	Lau-
4r	8g/L	.	8cc\L	.	4g\	-da	4b\	-da
.	8g/	.	8g\	.	.	.	.	.
4G\	8g/	.	8b\	.	4r	.	4r	.
!	!	!	!LO:TX:a:t=d	!	!	!	!	!
.	8b/J	.	8dd 8b\J	.	.	.	.	.
=2	=2	=2	=2	=2	=2	=2	=2	=2
4D\	4a/	.	4cc\	.	4a\	lau-	4cc\	Lau-
4r	8f#/L	.	8a/L	.	4f#\	-da	4a\	-da
.	8d/	.	8f#/	.	.	.	.	.
4D\	8f#/	.	8a/	.	4r	.	4r	.
.	8a/J	.	8cc/J	.	.	.	.	.
=3	=3	=3	=3	=3	=3	=3	=3	=3
4G\	4g/	.	4b\	.	4g\	Je-	4b\	Je-
4r	4b/	.	4dd\	.	4b\	-ru-	4dd\	-ru-
4G\	8a/L	.	8cc\L	.	8a\	-sa-	8cc\	-sa-
.	8g/J	.	8b\J	.	8g\	-lem	8b\	-lem
=4	=4	=4	=4	=4	=4	=4	=4	=4
4D\	8g/L	.	8b/L	.	8g\	Do-	8b\	Do-
.	8f#/	.	8a/	.	8f#\	-mi-	8a\	-mi-
4DD/	8f#/	.	8a/|	.	4f#\	-num	4a\	-num
.	8f#/	.	8a/|	.	.	.	.	.
4r	8g/	.	(8b/	.	4r	.	4r	.
.	8a/J	.	8cc/J)	.	.	.	.	.
=5	=5	=5	=5	=5	=5	=5	=5	=5
*	*	*	*	*	*	*	*2\right	*
!	!	!	!	!	!LO:TX:a:t=4.	!	!	!
!	!	!	!	!	!LO:N:vis=00	!	!	!
4G\	8g/	.	8b\|	.	0.r	.	2b\	lau-
.	8r	.	8r	.	.	.	.	.
4GG/	8g/	.	8b\|	.	.	.	.	.
.	8r	.	8r	.	.	.	.	.
4r	8g/	.	8b\|	.	.	.	4b\	-da
.	8r	.	8r	.	.	.	.	.
=6	=6	=6	=6	=6	=6	=6	=6	=6
8r	4r	.	4r	.	.	.	8dd\L	De-
8D\L|	.	.	.	.	.	.	8cc#X\J	.
8F#\|	8r	.	8r	.	.	.	4ccn\	-um
8A\|	8f#/L	.	8a/L|	.	.	.	.	.
8c\|	8g/	.	8b/|	.	.	.	4r	.
8A\J|	8a/J	.	8cc/J|	.	.	.	.	.
!	!	!	!	!	!	!	!LO:LB:g=original	!
=7	=7	=7	=7	=7	=7	=7	=7	=7
4G\	8g/	.	8b\|	.	.	.	2b\	tu-
.	8r	.	8r	.	.	.	.	.
4GG/	8g/	.	8b\|	.	.	.	.	.
.	8r	.	8r	.	.	.	.	.
4r	8g/	.	8b\|	.	.	.	4b\	-um
.	8r	.	8r	.	.	.	.	.
=8	=8	=8	=8	=8	=8	=8	=8	=8
8r	4r	.	4r	.	.	.	8dd\L	ſi-
8D\L|	.	.	.	.	.	.	8cc#X\J	.
8F#\|	8r	.	8r	.	.	.	4ccn\	-on
8A\|	8f#/L	.	8a/L	.	.	.	.	.
8c\|	8g/	.	8b/	.	.	.	4r	.
8A\J|	8a/J	.	8cc/J	.	.	.	.	.
=9	=9	=9	=9	=9	=9	=9	=9	=9
4G\|	4g/	.	4b\	.	4g\	Si-	4b\	ſi-
4D\|	4a/	.	4cc\	.	4a\	.	4cc\	.
4D\|	4g/	.	4b\	.	4g\	.	4b\	.
!	!LO:LB:g=original	!	!	!	!	!	!	!
=10	=10	=10	=10	=10	=10	=10	=10	=10
.	.	.	.	.	8qqg/	.	8qqb/	.
4D\	4g/	.	4b\	.	4f#\	-on	4a\	-on
*	*	*	*	*below	*	*	*	*
!	!	!	!	!LO:DY:t=for=	!	!	!	!
4DD/	8f#/L	.	8a\L	f	4r	.	4r	.
.	8f#/	.	8dd\	.	.	.	.	.
4r	8g/	.	8ee\	.	4r	.	4r	.
.	8a/J	.	8ff#\J	.	.	.	.	.
!	!	!	!LO:LB:g=original	!	!	!	!	!
=11	=11	=11	=11	=11	=11	=11	=11	=11
!	!	!	!	!	!LO:TX:a:t=8	!	!LO:TX:a:t=8.	!
!	!	!	!	!	!LO:N:vis=00	!	!LO:N:vis=00	!
4G\	(16b/LL	.	16gg\LL	.	0.r	.	0.r	.
.	16a/	.	16ff#\	.	.	.	.	.
.	16b/	.	16gg\	.	.	.	.	.
!	!	!LO:DY:t=for.	!	!	!	!	!	!
.	16cc/JJ)	f	16aa\JJ	.	.	.	.	.
*	*2\right	*	*2\right	*	*	*	*	*
*	*tremolo	*	*tremolo	*	*	*	*	*
4B\	8b\L	.	8gg\L	.	.	.	.	.
.	8b\	.	8gg\	.	.	.	.	.
4G\	8b\	.	8gg\	.	.	.	.	.
.	8b\J	.	8gg\J	.	.	.	.	.
*	*Xtremolo	*	*Xtremolo	*	*	*	*	*
=12	=12	=12	=12	=12	=12	=12	=12	=12
4D\	8cc\L	.	8aa\L	.	.	.	.	.
.	8a\J	.	8ff#\J	.	.	.	.	.
8D\L	4.a/	.	4.cc\	.	.	.	.	.
8E\	.	.	.	.	.	.	.	.
8F#\	.	.	.	.	.	.	.	.
8D\J	8f#/	.	8a\	.	.	.	.	.
=13	=13	=13	=13	=13	=13	=13	=13	=13
4G\	(16g/LL	.	16b\LL	.	.	.	.	.
.	16a/	.	16cc\	.	.	.	.	.
.	16b/	.	16dd\	.	.	.	.	.
.	16cc/JJ)	.	16ee\JJ	.	.	.	.	.
4B\	8b/L|	.	8dd\L	.	.	.	.	.
.	8b/|	.	8gg\	.	.	.	.	.
4G\	8a/|	.	8ff#\	.	.	.	.	.
.	8b/J|	.	8gg\J	.	.	.	.	.
!LO:LB:g=original	!	!	!	!	!	!	!	!
=14	=14	=14	=14	=14	=14	=14	=14	=14
8A\L|	8cc\L	.	8aa\L	.	.	.	.	.
8F#\|	8a\J	.	8ff#\J	.	.	.	.	.
8D\|	4.a/	.	4.cc\	.	.	.	.	.
8E\|	.	.	.	.	.	.	.	.
8F#\|	.	.	.	.	.	.	.	.
8D\J	8f#/	.	8a\	.	.	.	.	.
=15	=15	=15	=15	=15	=15	=15	=15	=15
*2\right	*	*	*	*	*	*	*	*
*tremolo	*	*	*	*	*	*	*	*
!	!	!	!	!	!LO:N:vis=00	!	!LO:N:vis=00	!
8G\L	8g/L	.	8b\L|	.	0.r	.	0.r	.
8G\	8b/J	.	8dd\J|	.	.	.	.	.
8G\	8r	.	8r	.	.	.	.	.
8G\	8b\	.	8dd\L|	.	.	.	.	.
8G\	8a/L	.	(8cc\	.	.	.	.	.
!	!	!LO:DY:t=f.	!	!	!	!	!	!
8G\J	8g/J	f	8a\J)	.	.	.	.	.
*Xtremolo	*	*	*	*	*	*	*	*
=16	=16	=16	=16	=16	=16	=16	=16	=16
!LO:TX:t=P:problem:mixed beam	!	!	!	!	!	!	!	!
8c\L	8cc\L	.	8ee\L|	.	.	.	.	.
8C/J	8ee\J	.	8gg\J|	.	.	.	.	.
8E\L	8r	.	8r	.	.	.	.	.
8G\	8ee\	.	8gg\L|	.	.	.	.	.
!	!LO:TX:a:t=c	!	!	!	!	!	!	!
8c\	8dd\L	.	(8ee\	.	.	.	.	.
!	!LO:TX:a:t=h	!	!	!	!	!	!	!
8G\J	8cc\J	.	8dd\J)	.	.	.	.	.
=17	=17	=17	=17	=17	=17	=17	=17	=17
*tremolo	*	*	*	*	*	*	*	*
8F#\L	8f#/L	.	8a\L|	.	.	.	.	.
8F#\	8a/J	.	8cc\J|	.	.	.	.	.
8F#\	8r	.	8r	.	.	.	.	.
8F#\	8a/L	.	8cc\L	.	.	.	.	.
8F#\	8g/	.	8b\	.	.	.	.	.
8F#\J	8f#/J	.	8a\J	.	.	.	.	.
*Xtremolo	*	*	*	*	*	*	*	*
=18	=18	=18	=18	=18	=18	=18	=18	=18
4G\	16g/LL	.	16b/LL	.	.	.	.	.
.	16f#/	.	16a/	.	.	.	.	.
.	16g/	.	16b/	.	.	.	.	.
.	16a/JJ	.	16cc/JJ	.	.	.	.	.
*	*tremolo	*	*	*	*	*	*	*
8r	8b\L	.	8dd\L	.	.	.	.	.
8D\	8b\	.	8dd\	.	.	.	.	.
4GG/	8b\	.	8dd\	.	.	.	.	.
.	8b\J	.	8dd\J	.	.	.	.	.
*	*Xtremolo	*	*	*	*	*	*	*
!	!LO:LB:g=original	!	!	!	!	!	!	!
=19	=19	=19	=19	=19	=19	=19	=19	=19
4G\	4b\	p	4dd\	.	4b\	Qui	4dd\	Qui
4r	4r	.	4r	.	8b\	po-	8dd\	po-
.	.	.	.	.	8a\	-su-	8cc\	-su-
!	!	!	!	!	!LO:LB:g=original	!	!	!
4G\	4g/	.	4b\	.	4g\	-it	4b\	-it
=20	=20	=20	=20	=20	=20	=20	=20	=20
4G\	4g/	.	4b\	.	8g\	fi-	8b\	fi-
.	.	.	.	.	8a\	-nes	8cc\	-nes
4r	4r	.	4r	.	8b\	tu-	8dd\	tu-
.	.	.	.	.	8cc\	-os	8ee\	-os
4r	4r	.	4r	.	8b\	pa-	8dd\	pa-
.	.	.	.	.	8g\	-cem	8b\	-cem
=21	=21	=21	=21	=21	=21	=21	=21	=21
4F#\	4a/	.	4cc\	.	4a\	qui	4cc\	qui
4r	4r	.	4r	.	8a\	po-	8cc\L	po-
.	.	.	.	.	8g\	-su-	8b\J	-su-
4F#\	4f#/	.	4a/	.	4f#\	-it	4a\	-it
!	!	!	!LO:LB:g=original	!	!	!	!LO:LB:g=original	!
=22	=22	=22	=22	=22	=22	=22	=22	=22
4F#\	4f#/	.	4a/	.	8f#\	fi-	8a\	fi-
.	.	.	.	.	8g\	-nes	8b\	-nes
4r	4r	.	4r	.	8a\	tu-	8cc\	tu-
.	.	.	.	.	8b\	-os	8dd\	-os
4r	4r	.	4r	.	8a\	pa-	8cc\	pa-
.	.	.	.	.	8f#\	-cem	8a\	-cem.
=23	=23	=23	=23	=23	=23	=23	=23	=23
4GG/	(8g/L	.	8b/L	.	8g\	et	8b\	et
.	8g/	.	8b/J	.	8g\	a-	8b\	a-
4G\	8g/	.	8b/L	.	8g\L	-di-	8b\L	-di-
.	8f#/J)	.	8a/J	.	8f#\J	.	8a\J	.
4D\	4f#/	.	4a/	.	4f#\	-pe	4a\	-pe
=24	=24	=24	=24	=24	=24	=24	=24	=24
4r	4a/	.	4cc\	.	4a\	fru-	4cc\	fru-
4D/	4a/	.	4cc\	.	4a\	-men-	4cc\	-men-
4GG/	4g/	.	4b\	.	4g\	-ti	4b\	-ti
!	!	!	!	!	!LO:LB:g=original	!	!	!
=25	=25	=25	=25	=25	=25	=25	=25	=25
4GG/	4.g/	.	4.b\	.	4.g\	ſa-	4.b\	ſa-
4r	.	.	.	.	.	.	.	.
.	8b/	.	8dd\	.	8b\	.	8dd\	.
4D/	8f#/L	.	8a/L	.	8f#\L	-ti-	8a\	-ti-
!	!	!	!	!	!LO:SIC:v:l:s=-at	!	!	!
.	8a/J	.	8cc/J	.	8a\J	-a	8cc\	-at
=26	=26	=26	=26	=26	=26	=26	=26	=26
!	!	!	!LO:TX:a:t=P:problem:pokreślone nuty na początku taktu	!	!	!	!	!
4GG/	16b/LL	.	16b/LL	.	8g\	te	8b\	te
!	!	!LO:DY:t=for	!	!	!	!	!	!
.	16g/	f	16g/	.	.	.	.	.
.	16a/	.	16a/	.	8r	.	8r	.
!	!	!	!	!LO:DY:t=for-	!	!	!	!
.	16b/JJ	.	16b/JJ	f	.	.	.	.
4r	16cc\LL	.	16cc\LL	.	4r	.	4r	.
.	16b\	.	16dd\	.	.	.	.	.
.	16cc\	.	16ee\	.	.	.	.	.
.	16a\JJ	.	16ff#\JJ	.	.	.	.	.
4r	4b\	.	4gg\	.	4r	.	4r	.
=27	=27	=27	=27	=27	=27	=27	=27	=27
!	!	!	!	!	!LO:TX:a:t=4	!	!LO:TX:a:t=4	!
!	!	!	!	!	!LO:N:vis=00	!	!LO:N:vis=00	!
4GG/	8.b\L	.	8.gg\L	.	0.r	.	0.r	.
.	16a\K	.	16ff#\K	.	.	.	.	.
4G\	8.b\	.	8.gg\	.	.	.	.	.
.	16a\Jk	.	16ff#\Jk	.	.	.	.	.
4r	(16b/LL	.	16gg\LL	.	.	.	.	.
.	16a/	.	16ff#\	.	.	.	.	.
.	16b/	.	16gg\	.	.	.	.	.
.	16cc/JJ)	.	16aa\JJ	.	.	.	.	.
=28	=28	=28	=28	=28	=28	=28	=28	=28
4GG/	(8.dd\L	.	8.bb\L	.	.	.	.	.
.	16cc\Jk	.	16aa\Jk	.	.	.	.	.
4G\	8.b\L	.	8.gg\L	.	.	.	.	.
.	16a\Jk	.	16ff#\Jk	.	.	.	.	.
4r	16b\LL	.	16gg\LL	.	.	.	.	.
.	16a\	.	16ff#\	.	.	.	.	.
.	16b\	.	16gg\	.	.	.	.	.
.	16cc\JJ)	.	16aa\JJ	.	.	.	.	.
!LO:LB:g=original	!	!	!	!	!	!	!	!
=29	=29	=29	=29	=29	=29	=29	=29	=29
!	!LO:TX:a:t=P:problem:takt zapisany repetycją	!	!	!LO:DY:a:t=p.	!	!	!	!
4GG/	(8.dd\Lyy	.	8.bb\L	p	.	.	.	.
.	16cc\Jkyy	.	16aa\Jk	.	.	.	.	.
4G\	8.b\Lyy	.	8.gg\L	.	.	.	.	.
.	16a\Jkyy	.	16ff#\Jk	.	.	.	.	.
4r	16b\LLyy	.	16gg\LL	.	.	.	.	.
.	16a\yy	.	16ff#\	.	.	.	.	.
.	16b\yy	.	16gg\	.	.	.	.	.
.	16cc\JJ)yy	.	16aa\JJ	.	.	.	.	.
!	!LO:LB:g=original	!	!	!	!	!	!	!
=30	=30	=30	=30	=30	=30	=30	=30	=30
!LO:TX:t=P:problem:mixed beam	!	!	!	!	!	!	!	!
8GG/L	8dd\L	.	8bb\L	.	.	.	.	.
8G\	8cc\J	.	8aa\J	.	.	.	.	.
8D\	4b\	.	4gg\	.	.	.	.	.
8BB\J	.	.	.	.	.	.	.	.
4GG/	4b\	.	4dd\	.	.	.	.	.
!	!	!	!LO:LB:g=original	!	!	!	!	!
=31	=31	=31	=31	=31	=31	=31	=31	=31
!	!	!LO:DY:t=p.	!	!	!	!	!	!
4GG/	4b\	p	4dd\	.	4b\	Qui	4dd\	Qui
4G\	4g\	.	4b\	.	4g\	dat	4b\	dat
4r	8ee\L	.	8gg\L	.	8b\	ni-	8gg\	ni-
.	8cc\J	.	8ee\J	.	8cc\	-vem	8ee\	-vem
!	!	!	!	!	!	!	!LO:LB:g=original	!
=32	=32	=32	=32	=32	=32	=32	=32	=32
4r	8b/L	.	8dd\L	.	8b\	ſi-	8dd\	ſi-
.	8a/J	.	8cc\J	.	8a\	-cut	8cc\	-cut
4D/	4a/	.	4cc\	.	4a\	la-	4cc\	la-
4GG/	4g/	.	4b\	.	4g\	-nam,	4b\	-nam
=33	=33	=33	=33	=33	=33	=33	=33	=33
4D\	4a/	.	4cc\	.	4a\	ne-	4cc\	ne-
4F#\	8f#/L	.	8a\L	.	8f#\	-bu-	8a\	-bu-
.	8a/	.	8cc\	.	8a\	-lam	8cc\	-lam
4D\	8a/	.	8cc\	.	8a\	ſi-	8cc\	ſi-
.	8a/J	.	8cc\J	.	8a\	-cut	8cc\	-cut
=34	=34	=34	=34	=34	=34	=34	=34	=34
!	!	!	!	!	!LO:TX:b:t=P:problem:tekst pokreślony	!	!	!
4D\	(8b/L	.	(8dd\L	.	8b\	ci-	8dd\	ci-
.	8a/	.	8cc\	.	8a\	-ne-	8cc\	-ne-
4G\	8a/	.	8cc\	.	8a\L	-rem	8cc\L	-rem
.	8g/J)	.	8b\J)	.	8g\J	ſpar-	8b\J	spar-
4D\	4g/	.	4b\	.	4g\	git	4b\	git.
=35	=35	=35	=35	=35	=35	=35	=35	=35
*tremolo	*	*	*	*	*	*	*	*
8c\L	4cc\	.	4ee\|	.	4cc\	ne-	4ee\	ne-
8c\	.	.	.	.	.	.	.	.
!	!	!	!	!	!LO:LB:g=original	!	!	!
8c\	4r	.	4r	.	8cc\	-bu-	8ee\	-bu-
8c\	.	.	.	.	8cc\	-lam	8ee\	-lam
8c\	4cc\	.	4ee\|	.	8cc\	ſi-	8gg\	si-
8c\J	.	.	.	.	8cc\	-cut	8ee\	-cut
*Xtremolo	*	*	*	*	*	*	*	*
=36	=36	=36	=36	=36	=36	=36	=36	=36
*tremolo	*	*	*	*	*	*ij	*	*ij
8B\L	4b\	.	4dd\|	.	4b\	ne-	4dd\	ne-
8B\	.	.	.	.	.	.	.	.
8B\	4r	.	4r	.	8b\	-bu-	8dd\	-bu-
8B\	.	.	.	.	8b\	-lam	8dd\	-lam
8B\	4b\	.	4dd\|	.	8b\	ſi-	8gg\	si-
8B\J	.	.	.	.	8b\	-cut	8dd\	-cut
*Xtremolo	*	*	*	*	*	*Xij	*	*Xij
!	!	!	!	!	!	!	!LO:LB:g=original	!
=37	=37	=37	=37	=37	=37	=37	=37	=37
4A\	8cc\L	.	8ee\L	.	8g\	ci-	8ee\	ci-
.	8a\J	.	8cc\J	.	8g\	-ne-	8cc\	-ne-
4F#\	4c/	.	4a/	.	4g\	-rem	4a\	-rem
4D\	4c/	.	4f#/	.	4f#\	ſpar	4f#\	ſpar
=38	=38	=38	=38	=38	=38	=38	=38	=38
4G\	16G/LL	.	4.g/	.	4g\	git	4g/	git
.	16d/	.	.	.	.	.	.	.
.	16B/	.	.	.	.	.	.	.
.	16d/JJ	.	.	.	.	.	.	.
*	*rep	*	*	*	*	*	*	*
!	!	!LO:DY:t=for.	!	!	!	!	!	!
4r	16G/LL	f	.	.	4r	.	4r	.
.	16d/	.	.	.	.	.	.	.
!	!	!	!	!LO:DY:t=for.	!	!	!	!
.	16B/	.	16b/LL	f	.	.	.	.
.	16d/JJ	.	16a/JJ	.	.	.	.	.
*	*Xrep	*	*	*	*	*	*	*
*	*rep	*	*	*	*	*	*	*
4r	16G/LL	.	16g/LL	.	4r	.	4r	.
.	16d/	.	16f#/	.	.	.	.	.
.	16B/	.	16e/	.	.	.	.	.
.	16d/JJ	.	16d/JJ	.	.	.	.	.
*	*Xrep	*	*	*	*	*	*	*
=39	=39	=39	=39	=39	=39	=39	=39	=39
*tremolo	*	*	*	*	*	*	*	*
!	!	!	!	!	!LO:TX:a:t=7.	!	!LO:TX:a:t=7.	!
!	!	!	!	!	!LO:N:vis=00	!	!LO:N:vis=00	!
8D\L	(16d/LL	.	16f#/LL	.	0.r	.	0.r	.
.	16e/	.	16g/	.	.	.	.	.
8D\	16f#/	.	16a/	.	.	.	.	.
.	16g/JJ)	.	16b/JJ	.	.	.	.	.
8D\	8a/L|	.	4cc\	.	.	.	.	.
8D\	8f#/J|	.	.	.	.	.	.	.
8D\	4d/	.	8r	.	.	.	.	.
8D\J	.	.	8a/	.	.	.	.	.
*Xtremolo	*	*	*	*	*	*	*	*
=40	=40	=40	=40	=40	=40	=40	=40	=40
4D\	16d/LL	.	4.a/	.	.	.	.	.
.	16a/	.	.	.	.	.	.	.
.	16f#/	.	.	.	.	.	.	.
.	16a/JJ	.	.	.	.	.	.	.
*	*rep	*	*	*	*	*	*	*
4r	16d/LL	.	.	.	.	.	.	.
.	16a/	.	.	.	.	.	.	.
.	16f#/	.	16cc/LL	.	.	.	.	.
.	16a/JJ	.	16a/JJ	.	.	.	.	.
*	*Xrep	*	*	*	*	*	*	*
*	*rep	*	*	*	*	*	*	*
4r	16d/LL	.	16g/LL	.	.	.	.	.
.	16a/	.	16f#/	.	.	.	.	.
.	16f#/	.	16e/	.	.	.	.	.
.	16a/JJ	.	16d/JJ	.	.	.	.	.
*	*Xrep	*	*	*	*	*	*	*
!	!LO:LB:g=original	!	!	!	!	!	!	!
=41	=41	=41	=41	=41	=41	=41	=41	=41
*tremolo	*	*	*	*	*	*	*	*
8G\L	16g/LL	.	16g/LL	.	.	.	.	.
.	16f#/	.	16a/	.	.	.	.	.
8G\	16g/	.	16b/	.	.	.	.	.
.	16a/JJ	.	16cc/JJ	.	.	.	.	.
8G\	4b\	.	4dd\	.	.	.	.	.
8G\	.	.	.	.	.	.	.	.
8G\	8r	.	8r	.	.	.	.	.
8G\J	8b\	.	8dd\	.	.	.	.	.
!	!	!	!LO:LB:g=original	!	!	!	!	!
=42	=42	=42	=42	=42	=42	=42	=42	=42
!	!	!	!	!LO:DY:a:t=f.	!	!	!	!
8G\L	8g/L	.	8b\L	f	.	.	.	.
8D\	8b/	.	8gg\	.	.	.	.	.
8G\	8b/	.	8gg\	.	.	.	.	.
8D\	8b/J	.	8gg\J	.	.	.	.	.
8G\	8b/L	.	8gg\L	.	.	.	.	.
8D\J	(16a/L	.	16ff#\L	.	.	.	.	.
.	16b/JJ)	.	16gg\JJ	.	.	.	.	.
=43	=43	=43	=43	=43	=43	=43	=43	=43
!	!	!	!	!	!LO:N:vis=0	!	!LO:N:vis=0	!
8F#\L	4.cc\	.	4.aa\	.	1.r	.	1.r	.
8D\	.	.	.	.	.	.	.	.
8F#\	.	.	.	.	.	.	.	.
8D\	8a\	.	8ff#\	.	.	.	.	.
8F#\	8cc\L	.	8aa\L	.	.	.	.	.
8D\J	8b\J	.	8gg\J	.	.	.	.	.
=44	=44	=44	=44	=44	=44	=44	=44	=44
!	!	!	!LO:TX:a:t=P:problem:takty 44-45 zapisane repetycją	!LO:DY:t=f.	!	!	!	!
8G\L	8g/L	.	8b\Lyy	f	.	.	.	.
8D\	8b/	.	8gg\yy	.	.	.	.	.
8G\	8b/	.	8gg\yy	.	.	.	.	.
8D\	8b/J	.	8gg\Jyy	.	.	.	.	.
8G\	8b/L	.	8gg\Lyy	.	.	.	.	.
8D\J	16a/L	.	16ff#\Lyy	.	.	.	.	.
.	16b/JJ	.	16gg\JJyy	.	.	.	.	.
=45	=45	=45	=45	=45	=45	=45	=45	=45
8F#\L	4.cc\	.	4.aa\yy	.	2.r	.	2.r	.
8D\	.	.	.	.	.	.	.	.
8F#\	.	.	.	.	.	.	.	.
8D\	8a\	.	8ff#\yy	.	.	.	.	.
8F#\	8cc\L	.	8aa\Lyy	.	.	.	.	.
8D\J	8b\J	.	8gg\Jyy	.	.	.	.	.
*Xtremolo	*	*	*	*	*	*	*	*
=46	=46	=46	=46	=46	=46	=46	=46	=46
!	!	!LO:DY:t=p.	!	!LO:DY:t=p.	!	!	!	!
4G\	4b\	p	4dd\	p	4b\	E-	4dd\	E-
4r	4b\	.	4dd\	.	4b\	-mit-	4dd\	-mit-
4r	4cc\	.	4ee\	.	4cc\	-tet	4ee\	-tet
!LO:LB:g=original	!	!	!	!	!	!	!	!
=47	=47	=47	=47	=47	=47	=47	=47	=47
4D\	(8b/L	.	(8dd\L	.	8b\L	ver-	8dd\L	ver-
.	8a/	.	8cc\	.	8a\J	-bum	8cc\J	-bum
4F#\	8a/	.	8cc\	.	8a\L	ſu-	8cc\L	ſu-
.	8g/J)	.	8b\J)	.	8g\J	.	8b\J	.
!LO:TX:t=P:problem:mixed beam	!	!	!	!	!	!	!	!
8G\L	4g/	.	4b\	.	4g\	-um	4b\	-um
8GG/J	.	.	.	.	.	.	.	.
=48	=48	=48	=48	=48	=48	=48	=48	=48
4D\	4f#/	.	4a/	.	4f#\	et	4a/	et
4r	8f#/L	.	8a/L	.	8f#\	lin-	8a\	lin-
.	8g/	.	8b/	.	8g\	-que-	8b\	-que-
!	!	!	!	!	!LO:LB:g=original	!	!	!
4D\	8a/	.	8cc/	.	8a\	-fa-	8cc\	-fa-
.	8f#/J	.	8a/J	.	8f#\	-ciet	8a\	-ciet
=49	=49	=49	=49	=49	=49	=49	=49	=49
4G\	4g/	.	4b\	.	4g\	e-	4b\	e-
4GG/	4b/	.	4dd\	.	4b\	-a	4dd\	-a
4G\	8r	.	8r	.	4r	.	4r	.
.	8b\	.	8dd\	.	.	.	.	.
=50	=50	=50	=50	=50	=50	=50	=50	=50
4G\	(8b\L	.	(8dd\L	.	8b\	fla-	8dd\	fla-
.	8g\	.	8b\	.	8g\	-bit	8b\	-bit
!	!	!	!	!	!	!	!LO:LB:g=original	!
4G\	8cc\	.	8ee\	.	8cc\	ſpi-	8ee\	ſpi-
.	8b\	.	8dd\	.	8b\	.	8dd\	-ri-
4G\	8a\	.	8cc\	.	8a\	-ri-	8cc\	.
.	8g\J)	.	8b\J)	.	8g\	-tus	8b\	-tus
!	!LO:LB:g=original	!	!	!	!	!	!	!
=51	=51	=51	=51	=51	=51	=51	=51	=51
4D\	4g/	.	4b\	.	4g\	e-	4b\	e-
8r	16f#/LL	.	16a/LL	.	8f#\	-jus	8a\	-jus
.	16g/	.	16b/	.	.	.	.	.
16D\LL	16a/	.	16cc/	.	8r	.	8r	.
16E\JJ	16b/JJ	.	16dd/JJ	.	.	.	.	.
8F#\L	8a/L	.	8cc\L	.	4r	.	4r	.
8D\J	16g/L	.	16b\L	.	.	.	.	.
.	16f#/JJ	.	16a\JJ	.	.	.	.	.
=52	=52	=52	=52	=52	=52	=52	=52	=52
4G\	4g/	.	4b\	.	4g\	et	4b\	et
4r	4r	.	4r	.	8g\	flu-	8b\	flu-
.	.	.	.	.	8g\	-ent	8b\	-ent
4r	4g/	.	4b\	.	8g\	aq-	8b\	aq-
.	.	.	.	.	8g\	-ue	8b\	-ue.
=53	=53	=53	=53	=53	=53	=53	=53	=53
*	*	*	*	*	*	*ij	*	*
4F#\	4a/	.	4cc\	.	4a\	et	4cc\	et
4r	4r	.	4r	.	8a\	flu-	8cc\	flu-
.	.	.	.	.	8a\	-ent	8cc\	-ent
4r	4a/	.	4cc\	.	8a\	aq-	8cc\	aq-
.	.	.	.	.	8a\	-ue	8cc\	-ue
*	*	*	*	*	*	*Xij	*	*
!	!	!	!	!	!LO:LB:g=original	!	!	!
=54	=54	=54	=54	=54	=54	=54	=54	=54
4D\|	4f#/	.	4a/|	.	4f#\	et	4a\	et
4E\|	4b/	.	(4dd/	.	4b\	flu-	4dd\	flu-
4F#\|	4a/	.	4cc/)	.	4a\	-ent	4cc\	-ent
=55	=55	=55	=55	=55	=55	=55	=55	=55
4G\	4g/	.	4b\	.	4a\	aq-	4cc\	aq-
4D\	8f#/L	.	8a\L	.	8g\	-ue	8b\	-ue
.	8b/	.	8dd\	.	8r	.	8r	.
4r	8a/	.	8cc\	.	4r	.	4r	.
.	8g/J	.	8b\J	.	.	.	.	.
=56	=56	=56	=56	=56	=56	=56	=56	=56
!	!	!	!	!	!LO:TX:a:t=P:problem:takty 56-60 zapisane repetycją	!	!LO:TX:a:t=P:problem:takty 56-60 zapisane repetycją	!
4G\	4g/	.	4b\	.	4g\yy	et	4b\yy	et
4r	4r	.	4r	.	8g\yy	flu-	8b\yy	flu-
.	.	.	.	.	8g\yy	-ent	8b\yy	-ent
4G\	4r	.	4r	.	8g\yy	aq-	8b\yy	aq-
.	.	.	.	.	8g\yy	-ue	8b\yy	-ue.
=57	=57	=57	=57	=57	=57	=57	=57	=57
*	*	*	*	*	*	*ij	*	*
4A\	4a/	.	4cc\	.	4a\yy	et	4cc\yy	et
4r	4r	.	4r	.	8a\yy	flu-	8cc\yy	flu-
.	.	.	.	.	8a\yy	-ent	8cc\yy	-ent
4D\	4r	.	4r	.	8a\yy	aq-	8cc\yy	aq-
.	.	.	.	.	8a\yy	-ue	8cc\yy	-ue
*	*	*	*	*	*	*Xij	*	*
!	!	!	!LO:LB:g=original	!	!	!	!	!
=58	=58	=58	=58	=58	=58	=58	=58	=58
4D\	4f#/	.	4a/	.	4f#\yy	et	4a\yy	et
4r	4r	.	4r	.	4b\yy	flu-	4dd\yy	flu-
4D\	4r	.	4r	.	4a\yy	-ent	4cc\yy	-ent
=59	=59	=59	=59	=59	=59	=59	=59	=59
4G\	4g/	.	4b/	.	4a\yy	aq-	4cc\yy	aq-
4r	4r	.	4r	.	8g\yy	-ue	8b\yy	-ue
.	.	.	.	.	8ryy	.	8ryy	.
4GG/	4r	.	4r	.	4ryy	.	4ryy	.
=60	=60	=60	=60	=60	=60	=60	=60	=60
!	!	!LO:DY:t=for.	!	!LO:DY:t=for.	!LO:TX:a:t=4	!	!LO:TX:a:t=4	!
!	!	!	!	!	!LO:N:vis=00	!	!LO:N:vis=00	!
8G\L	8b/L	f	8gg\L	f	0.r	.	0.r	.
8G\J	8b/	.	8gg\J	.	.	.	.	.
8G\L	8b/J	.	8gg\L	.	.	.	.	.
16B\L	8r	.	16bb\L	.	.	.	.	.
16A\JJ	.	.	16aa\JJ	.	.	.	.	.
!LO:LB:g=original	!	!	!	!	!	!	!	!
16G\LL	4r	.	16gg\LL	.	.	.	.	.
16F#\	.	.	16ff#\	.	.	.	.	.
16E\	.	.	16ee\	.	.	.	.	.
16D\JJ	.	.	16dd\JJ	.	.	.	.	.
=61	=61	=61	=61	=61	=61	=61	=61	=61
8E\L	8cc\L|	.	8ee\L	.	.	.	.	.
8E\J	8cc\|	.	8ee\J	.	.	.	.	.
8E\L	8cc\J|	.	8ee\L	.	.	.	.	.
16G\L	8r	.	16gg\L	.	.	.	.	.
16F#\JJ	.	.	16ff#\JJ	.	.	.	.	.
16E\LL	4r	.	16ee\LL	.	.	.	.	.
16D\	.	.	16dd\	.	.	.	.	.
16C\	.	.	16cc\	.	.	.	.	.
16BB\JJ	.	.	16b\JJ	.	.	.	.	.
=62	=62	=62	=62	=62	=62	=62	=62	=62
8C/L	8a/L	.	8cc\L	.	.	.	.	.
8C/J	8a/	.	8cc\J	.	.	.	.	.
8C/L	8a/J	.	8cc\L	.	.	.	.	.
16E/L	8r	.	16ee\L	.	.	.	.	.
16D/JJ	.	.	16dd\JJ	.	.	.	.	.
16C/LL	4r	.	16cc\LL	.	.	.	.	.
16BB/	.	.	16b\	.	.	.	.	.
16AA/	.	.	16a\	.	.	.	.	.
16GG/JJ	.	.	16g\JJ	.	.	.	.	.
!	!LO:LB:g=original	!	!	!	!	!	!	!
=63	=63	=63	=63	=63	=63	=63	=63	=63
4D\	4d/	.	4f#/	.	.	.	.	.
!	!	!	!LO:TX:t=P:problem:mixed beam	!	!	!	!	!
4r	8d/L	.	8d/L	.	.	.	.	.
.	8d/	.	8dd\	.	.	.	.	.
4r	8e/	.	8cc#X\	.	.	.	.	.
.	8f#/J	.	8ccn\J	.	.	.	.	.
!	!	!	!	!	!	!	!LO:LB:g=original	!
=64	=64	=64	=64	=64	=64	=64	=64	=64
!	!	!LO:DY:t=p.	!	!LO:DY:t=p.	!	!	!	!
4GG/	4b/	p	4dd\	p	4b\	Non	4dd\	Non
4G\	4g/	.	4b\	.	4g\	fe-	4b\	fe-
4r	4b/	.	4dd\	.	4b\	-cit	4dd\	-cit
=65	=65	=65	=65	=65	=65	=65	=65	=65
4r	8cc\L	.	8ee\L	.	8cc\L	tu-	8ee\L	tu-
.	8b\J	.	8dd\J	.	8b\J	-li-	8dd\J	-li-
*	*	*	*	*	*2\right	*	*	*
4D/	2a/	.	2cc\	.	2a\	-ter	2cc\	-ter
4DD/	.	.	.	.	.	.	.	.
=66	=66	=66	=66	=66	=66	=66	=66	=66
4D/	8a/L	.	8cc\L	.	8a\	om-	8cc\	om-
.	8a/J	.	8cc\J	.	8a\	-ni	8cc\	-ni
4D/	4f#/	.	4a/	.	4f#\	na-	4a\	na-
4r	4a/	.	4cc/	.	4a\	-ti-	4cc\	-ti-
=67	=67	=67	=67	=67	=67	=67	=67	=67
!	!	!	!	!	!	!	!LO:TX:b:t=P:problem:pomazany tekst	!
4r	8a/L	.	(8cc/L	.	8a\L	-o-	8cc\L	-o-
.	8g/J	.	8b/J)	.	8g\J	.	8b\J	.
4G\	2g/	.	2b/	.	2g\	-ni	2b\	-ni
4GG/	.	.	.	.	.	.	.	.
=68	=68	=68	=68	=68	=68	=68	=68	=68
4E\	8f#/L	.	8a/L	.	8f#\	et	8a\	et
.	8a/J	.	8cc/J	.	8a\	Ju-	8cc\	ju-
4F#\	4.a/	.	4.cc/	.	4.a\	-di-	4.cc\	-di-
4G\	.	.	.	.	.	.	.	.
.	8g/	.	8b/	.	8g\	-tia	8b\	-tia
!	!	!	!	!	!LO:LB:g=original	!	!	!
=69	=69	=69	=69	=69	=69	=69	=69	=69
8r	8g/L	.	8b/L	.	8g\L	ſu-	8b\L	ſu-
8D\L|	8f#/J	.	8a/J	.	8f#\J	.	8a\J	.
8F#\|	2f#/	.	2a/	.	2f#\	-a	2a\	-a
8A\|	.	.	.	.	.	.	.	.
8F#\|	.	.	.	.	.	.	.	.
8D\J|	.	.	.	.	.	.	.	.
!	!	!	!LO:LB:g=original	!	!	!	!	!
=70	=70	=70	=70	=70	=70	=70	=70	=70
!	!	!	!	!	!LO:TX:b:t=P:problem:tekst pokreślony	!	!	!
4D\	8g/L	.	8b\L	.	8g\	et	8a\	et
.	8b/J	.	8dd\J	.	8a\	ju-	8cc\	ju-
4G\	4.b/	.	4.dd\	.	4.b\	-di-	4.dd\	-di-
4B\	.	.	.	.	.	.	.	.
.	8a/	.	8cc\	.	8a\	-tia	8cc\	-tia
!	!	!	!	!	!	!	!LO:PB:g=original	!
=71	=71	=71	=71	=71	=71	=71	=71	=71
8r	8a/L	.	8cc\L	.	8a\	ſu-	8cc\L	ſu-
8D\	8g/J	.	8b\J	.	8g\	.	8b\J	.
!LO:LB:g=original	!	!	!	!	!	!	!	!
8G\L	2g/	.	2b\	.	2g\	-a	2b\	-a
8B\	.	.	.	.	.	.	.	.
8G\	.	.	.	.	.	.	.	.
8D\J	.	.	.	.	.	.	.	.
=72	=72	=72	=72	=72	=72	=72	=72	=72
4G\	8b/L|	.	8dd\L|	.	8b\	non	8dd\	non
.	8b/|	.	8dd\|	.	8b\	ma-	8dd\	ma-
4r	(8cc/	.	8ee\|	.	8cc\	-ni-	8ee\	-ni-
.	8b/	.	8dd\|	.	8b\	-fes-	8dd\	-fes-
4r	8a/	.	(8cc\	.	8a\	-ta-	8cc\	-ta-
.	8g/J)	.	8b\J)	.	8g\	-vit	8b\	-vit
=73	=73	=73	=73	=73	=73	=73	=73	=73
8r	4g/	.	4b/	.	4g\	e-	4b\	e-
8D\	.	.	.	.	.	.	.	.
!LO:TX:a:t=e	!	!	!	!	!	!	!	!
8E\L	2f#/	.	2a/	.	2f#\	-is	2a\	-is
!LO:TX:a:t=f	!	!	!	!	!	!	!	!
8F#\	.	.	.	.	.	.	.	.
8G\	.	.	.	.	.	.	.	.
8A\J	.	.	.	.	.	.	.	.
=74	=74	=74	=74	=74	=74	=74	=74	=74
4G\	8b\L	.	8dd\L	.	8b\	non	8dd\	non
.	8b\	.	8dd\	.	8b\	ma-	8dd\	ma-
4r	8cc\	.	8ee\	.	8cc\	-ni-	8ee\	-ni-
.	8b\	.	8dd\	.	8b\	-fes-	8dd\	-fes-
4r	8a\	.	8cc\	.	8a\	-ta-	8cc\	-ta-
.	8g\J	.	8b\J	.	8g\	-vit	8b\	-vit
!	!	!	!	!	!LO:PB:g=original	!	!	!
=75	=75	=75	=75	=75	=75	=75	=75	=75
4D\	4g/	.	4b\	.	4g\	e-	4b\	e-
8d'\L	4cc/	.	4dd\	.	4b\	-is	4dd\	-is
8c'\	.	.	.	.	.	.	.	.
8B'\	4r	.	4r	.	4r	.	4r	.
8A'\J	.	.	.	.	.	.	.	.
=76	=76	=76	=76	=76	=76	=76	=76	=76
!	!LO:TX:a:t=1	!	!LO:TX:a:t=1	!	!	!	!	!
4G\	2.r	.	2.r	.	2b\	Glo-	2dd\	Glo-
4r	.	.	.	.	.	.	.	.
4r	.	.	.	.	8g\	-ri-	8b\	-ri-
!	!LO:TX:b:i:t=vertutus	!	!LO:TX:b:i:t=vertatur citiſsimo	!	!	!	!	!
.	.	.	.	.	8b\	-a	8dd\	-a
!	!LO:PB:g=original	!	!LO:PB:g=original	!	!	!	!LO:LB:g=original	!
=77	=77	=77	=77	=77	=77	=77	=77	=77
8r	8r	.	8r	.	8a\	Pa-	8cc\	Pa-
16D'\LL	16d/LL	.	16d/LL	.	8f#\	.	8a\	.
16E'\J	16c#X/JJ	.	16e/JJ	.	.	.	.	.
!	!	!	!	!LO:DY:t=for.	!	!	!	!
8F#'\	8d/L	.	8f#/L	f	4g\	-tri	4b\	-tri
8G\'	8e/	.	8g/	.	.	.	.	.
8A'\	8f#/	.	8a/	.	4r	.	4r	.
8B\J	8g/J	.	8b/J	.	.	.	.	.
=78	=78	=78	=78	=78	=78	=78	=78	=78
!	!LO:TX:a:t=1	!	!LO:TX:a:t=1	!	!	!	!	!
4F#\	2.r	.	2.r	.	2a\	glo-	2cc\	glo-
4r	.	.	.	.	.	.	.	.
4r	.	.	.	.	8g\	-ri-	8b\	-ri-
.	.	.	.	.	8g\	-a	8b\	-a
=79	=79	=79	=79	=79	=79	=79	=79	=79
4G\	8r	.	8r	.	4g\	Fil-	4b\	Fil-
.	16B/LL	.	16g/LL	.	.	.	.	.
.	16A/JJ	.	16f#/JJ	.	.	.	.	.
8F#\L	8B/L	.	8g/L	.	4f#\	-lio	4a\	-lio
8d\	8f#/	.	8a/	.	.	.	.	.
8c#X\	8g/	.	8b/	.	4r	.	4r	.
8cn\J	8a/J	.	8cc/J	.	.	.	.	.
=80	=80	=80	=80	=80	=80	=80	=80	=80
!	!	!LO:DY:t=p.	!	!	!	!	!	!
4G\	8g/L	p	8b\L	.	8g\	et	8b\	et
!	!	!	!	!LO:DY:t=pia_	!	!	!	!
.	8g/J	.	8b\J	p	8g\	ſpi-	8b\	ſpi-
4GG/	4g/	.	4b\	.	4g\	-ri-	4b\	-ri-
4r	8a/L	.	8cc\L	.	8a\	-tu-	8cc\	-tu-
.	8a/J	.	8cc\J	.	8a\	-i	8cc\	-i
!	!	!	!	!	!LO:LB:g=original	!	!	!
=81	=81	=81	=81	=81	=81	=81	=81	=81
4G\	(8b\L	.	8dd\L	.	8b\L	ſan-	8cc\L	ſan-
.	8cc\	.	8ee\	.	8cc\J	.	8ee\J	.
4GG/	8b\	.	8dd\	.	8b\L	.	8dd\L	.
.	8a\J)	.	8cc\J	.	8a\J	.	8cc\J	.
4r	4g/	.	4b\	.	4g\	-cto	4b\	-cto
=82	=82	=82	=82	=82	=82	=82	=82	=82
4D\	8f#/L	.	8a\L	.	8f#\	et	8a\	et
.	8f#/J	.	8a\J	.	8f#\	ſpi-	8a\	ſpi-
4DD/	4f#/	.	4a/	.	4f#\	-ri-	4a\	-ri-
4r	8g/L	.	8b/L	.	8g\	-tu-	8b\	-tu-
.	8g/J	.	8b/J	.	8g\	-i	8b\	-i
!	!	!	!	!	!	!	!LO:LB:g=original	!
=83	=83	=83	=83	=83	=83	=83	=83	=83
4D\	(8a/L	.	(8cc\L	.	8a\L	ſan-	8cc\L	ſan-
.	8b/	.	8dd\	.	8b\	.	8dd\	.
4DD/	8a/	.	8cc\	.	8a\	.	8cc\	.
.	8g/J)	.	8b\J)	.	8g\J	.	8b\J	.
4r	4f#/	.	4a\	.	4f#\	-cto	4a\	-cto
!LO:LB:g=original	!	!	!	!	!	!	!	!
=84	=84	=84	=84	=84	=84	=84	=84	=84
*tremolo	*	*	*	*	*	*	*	*
8G\L	8g/L	.	8b\L	.	8g\	ſi-	8b\	ſi-
8G\	8b/	.	8dd\	.	8b\	-cut	8dd\	-cut
8G\	8b/	.	8dd\	.	8b\	e-	8dd\	e-
8G\	8b/	.	8dd\	.	8b\	-rat	8dd\	-rat
8G\	8ccn/	.	8ee\	.	8cc\	In	8ee\	In
8G\J	8a/J	.	8ff#\J	.	8a\	prin-	8ff#\	prin-
*Xtremolo	*	*	*	*	*	*	*	*
=85	=85	=85	=85	=85	=85	=85	=85	=85
*tremolo	*tremolo	*	*	*	*	*	*	*
8G\L	8b\L	.	8gg\L	.	4b\	-ci-	4gg\	-ci-
8G\	8b\	.	8dd\	.	.	.	.	.
8G\	8b\	.	8dd\	.	4b\	-pio	4dd\	-pio
!	!	!	!LO:TX:t=P:problem:pokreślony takt, tak jakby zbędna kreska taktowa, przed nią pauza ćwierćnutowa	!	!	!	!	!
8G\	8b\J	.	8dd\	.	.	.	.	.
*	*Xtremolo	*	*	*	*	*	*	*
8G\	8a/L	.	8cc\	.	4r	.	4r	.
8G\J	8g/J	.	8b\J	.	.	.	.	.
*Xtremolo	*	*	*	*	*	*	*	*
=86	=86	=86	=86	=86	=86	=86	=86	=86
*tremolo	*	*	*	*	*	*	*	*
8G\L	8g/L	.	8b\L	.	8g\	et	8b\	et
8G\	8b/	.	8dd\	.	8b\	.	8dd\	.
!	!	!	!	!	!LO:LB:g=original	!	!	!
8G\	8b/	.	8dd\	.	8b\	nunc	8dd\	nunc
8G\	8b/	.	8dd\	.	8b\	et	8dd\	et
8G\	8cc/	.	8ee\	.	8cc\	ſem-	8ee\	.
8G\J	8a/J	.	8ff#\J	.	8a\	-per	8ff#\	.
*Xtremolo	*	*	*	*	*	*	*	*
!	!LO:LB:g=original	!	!LO:LB:g=original	!	!	!	!	!
=87	=87	=87	=87	=87	=87	=87	=87	=87
*tremolo	*	*	*	*	*	*	*	*
8G\L	8b\L|	.	8gg\L	.	4b\	ſem-	4gg\	ſem-
8G\	8b\J|	.	8dd\J	.	.	.	.	.
8G\	(16b\LL	.	(16dd\LL	.	4b\	-per	4dd\	-per
.	16cc\	.	16ee\	.	.	.	.	.
8G\	16b\	.	16dd\	.	.	.	.	.
.	16a\JJ)	.	16cc\JJ)	.	.	.	.	.
8G\	4g/	.	4b\	.	4r	.	4r	.
8G\J	.	.	.	.	.	.	.	.
*Xtremolo	*	*	*	*	*	*	*	*
=88	=88	=88	=88	=88	=88	=88	=88	=88
4G\	(8b/L	.	(8dd\L	.	8b\	et	8dd\	et
.	8a/)	.	8cc\	.	8a\	in	8cc\	in
8r	8g/|	.	8b\)	.	8g\	ſae-	8b\	ſae-
8G\L	8g/J|	.	8b'\J	.	8g\	-cu-	8b\	-cu-
!	!	!	!	!	!	!	!LO:LB:g=original	!
8c\	4cc\	.	4ee\	.	4cc\	-la	4ee\	-la
8B\J	.	.	.	.	.	.	.	.
=89	=89	=89	=89	=89	=89	=89	=89	=89
4F#\	(8a/L	.	8cc\L	.	8a\	ſae-	8cc\	ſe-
.	8g/)	.	8b\J	.	8g\	-cu-	8b\	-cu-
8r	8f#/|	.	8a\L	.	8f#\	.	8a\	-lo-
8F#\L	8f#/J|	.	8a\J	.	8f#\	-lo-	8a\	.
8B\	4b\	.	4dd\	.	4b\	-rum	4dd\	-rum
8A\J	.	.	.	.	.	.	.	.
=90	=90	=90	=90	=90	=90	=90	=90	=90
4G\	8g\L	.	(8b\L	.	8g\	ſae-	8b\	ſae-
.	8b\	.	8dd\	.	8b\	-cu-	8dd\	-cu-
4F#\	8b\	.	8dd\)|	.	8b\	-lo-	8dd\	-lo-
.	8b\	.	8dd\|	.	8b\	-rum	8dd\	-rum
4D\	8cc\	.	8ee\|	.	8cc\	a-	8ee\	a-
.	8a\J	.	8ff#\J|	.	8a\	-men	8ff#\	.
!	!	!	!	!	!LO:LB:g=original	!	!	!
=91	=91	=91	=91	=91	=91	=91	=91	=91
*tremolo	*	*	*	*	*	*	*	*
!LO:TX:t=P:problem:mixed beam	!	!	!	!	!	!	!	!
8GG/L	4b\	.	4gg\	.	4b\	-men	4gg\	-men
8G\	.	.	.	.	.	.	.	.
8GG/	8r	.	8r	.	8r	.	8r	.
8G\J	8g/L	.	8b\L	.	8g\	a-	8b\	a-
*Xtremolo	*	*	*	*	*	*	*	*
8F#\L	8a/	.	8cc\	.	8a\	.	8cc\	.
8D\J	8f#/J	.	8a\J	.	8f#\	.	8a\	.
=92	=92	=92	=92	=92	=92	=92	=92	=92
4GG/	4b 4d 4G/	.	4gg 4b 4d/	.	4g\	-men	4b\	-men
4r	4r	.	4r	.	4r	.	4r	.
!LO:TX:b:t=92.	!	!	!	!	!	!	!	!
4r	4r	.	4r	.	4r	.	4r	.
==	==	==	==	==	==	==	==	==
*-	*-	*-	*-	*-	*-	*-	*-	*-
!!!system-decoration: [g1][g2]
!!!ENC: Marta Lawrence
!!!END: 2020-12-28
!!!ENC: Tomasz Grochalski
!!!END: 2020-12-04
!!!RDF**kern: | = vertical stroke
